X:0838
T:Jack Ratlin.
M:C
L:1/8
Q:1/4=100 "Slow"
I: ||
Z:Jack Campin * www.campin.me.uk * 2009
K:D
zAdc| d3 e  f2g2 |{d}c2     {e}d2  zAdc |B2 A>B   A2  (G/F/)G|{G}F4
zfdB|^G4    zfed |   c>d       e2  zB^AB|f3 (d/B/ A2) ^G>A   |{B}A4
zece| A2A2  zFFA | (3Bcd       d2  zdfd |B4       zgfe       |  (d2{ed}) c2
zfef| d2 d3  fe>f|  (dg) ({fga}g2) zefe |a2 z2    zABA       |   d4      |]

